X:1
T:Southwark, CM
T:Southwark, CM
T:Christopher Tye, 1553
T:Public Domain Courtesy of the Cyber Hymnal™
C:Christopher Tye, 1553
Z:Public Domain
Z:Courtesy of the Cyber Hymnal™
%%score ( 1 2 ) ( 3 4 )
L:1/8
Q:1/4=108
M:4/4
K:A
V:1 treble 
V:2 treble 
V:3 bass 
V:4 bass 
V:1
 E2 | [EA]2 [EB]2 [Ec]2 [Fd]2 | [Ge]3 [Gd] [Ac]2 [Fd]2 | [Ec]3 [DB] [CA]2 [FA]2 | [EG]6 [=GB]2 | %5
 [FB]2 [E^A]2 [DB]2 [F=A]2 | [EA]2 [DG]2 [CA]2 [Ac]2 | [GB]2 [Ae]2 [Fd]2 [GB]2 | A6 x3 |] x6 |] %10
V:2
 E2 | x8 | x8 | x8 | x8 | x8 | x8 | x8 | A6 x3 |] x6 |] %10
V:3
 [A,C]2 | [A,C]2 [G,B,]2 A,2 [F,A,]2 | [E,B,]3 [E,B,] A,2 [D,A,]2 | A,3 [E,G,] [F,A,]2 [D,D]2 | %4
 [E,B,]6 [E,E]2 | x8 | [F,C]2 [F,C]2 [B,,D]2 [D,D]2 | [E,B,]2 [E,B,]2 [A,,A,]2 [A,,E]2 | %8
 E3 z A, [D,B,]2 [E,D]2 |] [A,C]6 |] %10
V:4
 x2 | x4 A,2 x2 | x4 A,2 x2 | A,3 x5 | x8 | x8 | x8 | x8 | E,2 C,2 x5 |] x6 |] %10

